X: 132016
Q: "Scotch Jig."
M: 6/8
L: 1/8
K: G
vG2ve dBG | BcB uB2uA | G2e dBG | ABA A2G |\
|: ud |\
g3 gab | ded dBd | vg2vg gab | ve2ve ue2ud |\
def gfe | def gab | geg dBG | B2B B2 :|


